svgs/regular/sidebar-flip.svg

<svg xmlns="http://www.w3.org/2000/svg" viewBox="0 0 512 512"><!-- Font Awesome Pro 6.0.0-alpha2 by @fontawesome - https://fontawesome.com License - https://fontawesome.com/license (Commercial License) --><path d="M0 96V416C0 451.346 28.652 480 64 480H448C483.348 480 512 451.346 512 416V96C512 60.654 483.348 32 448 32H64C28.652 32 0 60.654 0 96ZM352 312C352 298.744 362.746 288 376 288H424C437.254 288 448 298.744 448 312C448 325.254 437.254 336 424 336H376C362.746 336 352 325.254 352 312ZM352 216C352 202.744 362.746 192 376 192H424C437.254 192 448 202.744 448 216C448 229.254 437.254 240 424 240H376C362.746 240 352 229.254 352 216ZM352 120C352 106.744 362.746 96 376 96H424C437.254 96 448 106.744 448 120C448 133.254 437.254 144 424 144H376C362.746 144 352 133.254 352 120ZM48 96C48 87.178 55.176 80 64 80H288V432H64C55.176 432 48 424.822 48 416V96Z"/></svg>

<svg xmlns="http://www.w3.org/2000/svg" viewBox="0 0 512 512"><!--! Font Awesome Pro 6.3.0 by @fontawesome - https://fontawesome.com License - https://fontawesome.com/license (Commercial License) Copyright 2023 Fonticons, Inc. --><path d="M288 80V432H64c-8.8 0-16-7.2-16-16V96c0-8.8 7.2-16 16-16H288zM512 96c0-35.3-28.7-64-64-64H64C28.7 32 0 60.7 0 96V416c0 35.3 28.7 64 64 64H448c35.3 0 64-28.7 64-64V96zm-64 24c0 13.3-10.7 24-24 24H376c-13.3 0-24-10.7-24-24s10.7-24 24-24h48c13.3 0 24 10.7 24 24zm-24 72c13.3 0 24 10.7 24 24s-10.7 24-24 24H376c-13.3 0-24-10.7-24-24s10.7-24 24-24h48zm24 120c0 13.3-10.7 24-24 24H376c-13.3 0-24-10.7-24-24s10.7-24 24-24h48c13.3 0 24 10.7 24 24z"/></svg>
